src/images/server-icon.svg

<?xml version="1.0" encoding="UTF-8"?><svg width="800px" height="800px" version="1.1" viewBox="0 0 20 20" xmlns="http://www.w3.org/2000/svg"><g fill="none" fill-rule="evenodd"><g transform="translate(-220 -3839)" fill="#000"><g transform="translate(56 160)"><path d="m166 3695h16v-14h-16v14zm-2 4h20v-20h-20v20z"/></g></g></g></svg>

<?xml version="1.0" encoding="UTF-8" standalone="no"?>
<!-- Uploaded to: SVG Repo, www.svgrepo.com, Generator: SVG Repo Mixer Tools -->
<svg width="800px" height="800px" viewBox="0 0 20 20" version="1.1" xmlns="http://www.w3.org/2000/svg" xmlns:xlink="http://www.w3.org/1999/xlink">
    
    <title>image_cover [#986]</title>
    <desc>Created with Sketch.</desc>
    <defs>

</defs>
    <g id="Page-1" stroke="none" stroke-width="1" fill="none" fill-rule="evenodd">
        <g id="Dribbble-Light-Preview" transform="translate(-220.000000, -3839.000000)" fill="#000000">
            <g id="icons" transform="translate(56.000000, 160.000000)">
                <path d="M166,3695 L182,3695 L182,3681 L166,3681 L166,3695 Z M164,3699 L184,3699 L184,3679 L164,3679 L164,3699 Z" id="image_cover-[#986]">

</path>
            </g>
        </g>
    </g>
</svg>
